packages/icons/src/loop.svg

<svg width="15" height="15" viewBox="0 0 15 15" fill="none" xmlns="http://www.w3.org/2000/svg">
  <path
    fill-rule="evenodd"
    clip-rule="evenodd"
    d="M3.35355 1.85355C3.54882 1.65829 3.54882 1.34171 3.35355 1.14645C3.15829 0.951184 2.84171 0.951184 2.64645 1.14645L0.646447 3.14645C0.451184 3.34171 0.451184 3.65829 0.646447 3.85355L2.64645 5.85355C2.84171 6.04882 3.15829 6.04882 3.35355 5.85355C3.54882 5.65829 3.54882 5.34171 3.35355 5.14645L2.20711 4H9.5C11.433 4 13 5.567 13 7.5C13 7.77614 13.2239 8 13.5 8C13.7761 8 14 7.77614 14 7.5C14 5.01472 11.9853 3 9.5 3H2.20711L3.35355 1.85355ZM2 7.5C2 7.22386 1.77614 7 1.5 7C1.22386 7 1 7.22386 1 7.5C1 9.98528 3.01472 12 5.5 12H12.7929L11.6464 13.1464C11.4512 13.3417 11.4512 13.6583 11.6464 13.8536C11.8417 14.0488 12.1583 14.0488 12.3536 13.8536L14.3536 11.8536C14.5488 11.6583 14.5488 11.3417 14.3536 11.1464L12.3536 9.14645C12.1583 8.95118 11.8417 8.95118 11.6464 9.14645C11.4512 9.34171 11.4512 9.65829 11.6464 9.85355L12.7929 11H5.5C3.567 11 2 9.433 2 7.5Z"
    fill="currentColor"
  />
</svg>

<svg xmlns="http://www.w3.org/2000/svg" width="15" height="15" fill="none"><path fill="currentColor" fill-rule="evenodd" d="M3.354 1.854a.5.5 0 1 0-.708-.708l-2 2a.5.5 0 0 0 0 .708l2 2a.5.5 0 1 0 .708-.708L2.207 4H9.5A3.5 3.5 0 0 1 13 7.5a.5.5 0 0 0 1 0A4.5 4.5 0 0 0 9.5 3H2.207zM2 7.5a.5.5 0 0 0-1 0A4.5 4.5 0 0 0 5.5 12h7.293l-1.147 1.146a.5.5 0 0 0 .708.708l2-2a.5.5 0 0 0 0-.708l-2-2a.5.5 0 0 0-.708.708L12.793 11H5.5A3.5 3.5 0 0 1 2 7.5" clip-rule="evenodd"/></svg>
